; generated by PrusaSlicer 2.5.0+win64 on 2023-02-27 at 21:13:45 UTC


;
;
; 

; external perimeters extrusion width = 0.45mm
; perimeters extrusion width = 0.45mm
; infill extrusion width = 0.45mm
; solid infill extrusion width = 0.45mm
; top infill extrusion width = 0.40mm
; first layer extrusion width = 0.42mm

M73 P0 R45
M73 Q0 S45
M201 X1000 Y1000 Z200 E5000 ; sets maximum accelerations, mm/sec^2
M203 X200 Y200 Z12 E120 ; sets maximum feedrates, mm / sec
M204 P1250 R1250 T1250 ; sets acceleration (P, T) and retract acceleration (R), mm/sec^2
M205 X8.00 Y8.00 Z0.40 E4.50 ; sets the jerk limits, mm/sec
M205 S0 T0 ; sets the minimum extruding and travel feed rate, mm/sec
M107
;TYPE:Custom
M862.3 P "MK3S" ; printer model check
M862.1 P0.4 ; nozzle diameter check
M115 U3.11.0 ; tell printer latest fw version
G90 ; use absolute coordinates
M83 ; extruder relative mode
M104 S230 ; set extruder temp
M140 S85 ; set bed temp
M190 S85 ; wait for bed temp
M109 S230 ; wait for extruder temp
G28 W ; home all without mesh bed level
G80 ; mesh bed leveling

G1 Z0.2 F720
G1 Y-3 F1000 ; go outside print area
G92 E0
G1 X60 E9 F1000 ; intro line
G1 X100 E12.5 F1000 ; intro line

G92 E0
M221 S95

; Don't change E values below. Excessive value can damage the printer.

M907 E538 ; set extruder motor current
G21 ; set units to millimeters
G90 ; use absolute coordinates
M83 ; use relative distances for extrusion
M900 K0.08 ; Filament gcode LA 1.5
M900 K45 ; Filament gcode LA 1.0
M107
;LAYER_CHANGE
;Z:0.2
;HEIGHT:0.2
;BEFORE_LAYER_CHANGE
G92 E0.0
;0.2


G1 E-1 F2100
G1 Z.2 F720
;AFTER_LAYER_CHANGE
;0.2
G1 Z.4
G1 X119.125 Y99.738 F10800
G1 Z.2 F720
G1 E1 F2100
M204 S800
;TYPE:Skirt/Brim
;WIDTH:0.42
G1 F1200
G1 X120.099 Y98.82 E.04197
G1 X121.679 Y97.847 E.05818
G1 X122.94 Y97.387 E.04208
G1 X124.26 Y97.148 E.04207
G1 X125.598 Y97.136 E.04194
G1 X126.92 Y97.35 E.04201
G1 X128.179 Y97.783 E.04174
G1 X128.904 Y98.147 E.02545
G1 X130.008 Y98.907 E.04202
G1 X130.962 Y99.837 E.04174
G1 X132.006 Y101.378 E.05838
G1 X132.518 Y102.618 E.04207
G1 X132.813 Y103.923 E.04194
G1 X132.882 Y105.266 E.04214
G1 X132.724 Y106.594 E.04194
G1 X132.347 Y107.866 E.04161
G1 X132.015 Y108.603 E.02532
G1 X131.302 Y109.742 E.04215
G1 X130.013 Y111.088 E.05844
G1 X128.909 Y111.85 E.04208
G1 X127.693 Y112.413 E.04201
G1 X126.401 Y112.761 E.04194
G1 X125.6 Y112.864 E.02533
G1 X124.266 Y112.853 E.04182
G1 X122.948 Y112.615 E.04198
G1 X121.694 Y112.16 E.04182
G1 X120.53 Y111.498 E.04201
G1 X119.133 Y110.27 E.05831
G1 X118.327 Y109.203 E.04194
G1 X117.929 Y108.492 E.02553
G1 X117.439 Y107.243 E.04207
G1 X117.169 Y105.937 E.04182
G1 X117.126 Y104.463 E.04623
G1 X117.438 Y102.759 E.05432
G1 X117.927 Y101.511 E.04201
G1 X118.617 Y100.368 E.04188
G1 X119.087 Y99.785 E.02349
M204 S1000
G1 X119.381 Y100.022 F10800
M204 S800
G1 F1200
G1 X120.348 Y99.103 E.04183
G1 X121.82 Y98.197 E.0542
G1 X123.019 Y97.756 E.04007
G1 X124.276 Y97.525 E.04007
G1 X125.55 Y97.51 E.03994
G1 X126.81 Y97.711 E.04
G1 X128.01 Y98.12 E.03975
G1 X128.735 Y98.484 E.02545
G1 X129.784 Y99.211 E.04001
G1 X130.689 Y100.098 E.03974
G1 X131.662 Y101.534 E.0544
G1 X132.154 Y102.714 E.04007
G1 X132.437 Y103.956 E.03994
G1 X132.507 Y105.234 E.04013
G1 X132.359 Y106.499 E.03994
G1 X132.003 Y107.711 E.03962
G1 X131.672 Y108.448 E.02532
G1 X130.989 Y109.531 E.04014
G1 X129.789 Y110.785 E.05444
G1 X128.739 Y111.514 E.04007
G1 X127.582 Y112.053 E.04
G1 X126.353 Y112.387 E.03994
G1 X125.552 Y112.49 E.02533
G1 X124.282 Y112.476 E.03982
G1 X123.027 Y112.247 E.03999
G1 X121.835 Y111.811 E.03981
G1 X120.727 Y111.176 E.04003
G1 X119.426 Y110.033 E.05431
G1 X118.656 Y109.018 E.03994
G1 X118.258 Y108.308 E.02553
G1 X117.794 Y107.118 E.04006
G1 X117.541 Y105.873 E.03982
G1 X117.503 Y104.479 E.04372
G1 X117.794 Y102.884 E.05083
G1 X118.256 Y101.695 E.04001
G1 X118.91 Y100.605 E.03988
G1 X119.343 Y100.068 E.02161
M204 S1000
G1 X119.636 Y100.305 F10800
M204 S800
G1 F1200
G1 X119.712 Y100.212 E.00376
G1 X120.598 Y99.387 E.03796
G1 X121.961 Y98.546 E.05021
G1 X123.099 Y98.124 E.03806
G1 X124.292 Y97.901 E.03806
G1 X125.502 Y97.884 E.03794
G1 X126.699 Y98.072 E.038
G1 X127.84 Y98.456 E.03776
G1 X128.565 Y98.821 E.02545
G1 X129.56 Y99.514 E.038
G1 X130.417 Y100.359 E.03773
G1 X131.319 Y101.69 E.05042
G1 X131.789 Y102.809 E.03806
G1 X132.061 Y103.988 E.03794
G1 X132.131 Y105.202 E.03812
G1 X131.994 Y106.404 E.03794
G1 X131.659 Y107.556 E.03763
G1 X131.328 Y108.293 E.02532
G1 X130.677 Y109.32 E.03814
G1 X129.564 Y110.482 E.05044
G1 X128.569 Y111.177 E.03806
G1 X127.472 Y111.692 E.038
G1 X126.305 Y112.013 E.03794
G1 X125.504 Y112.116 E.02533
G1 X124.298 Y112.099 E.03782
G1 X123.107 Y111.878 E.038
G1 X121.976 Y111.461 E.03779
G1 X120.924 Y110.855 E.03804
G1 X119.719 Y109.796 E.05031
G1 X118.985 Y108.834 E.03794
G1 X118.587 Y108.124 E.02553
G1 X118.15 Y106.992 E.03804
G1 X117.912 Y105.809 E.03782
G1 X117.88 Y104.495 E.04122
G1 X118.149 Y103.01 E.04733
G1 X118.585 Y101.879 E.038
G1 X119.204 Y100.841 E.03788
G1 X119.599 Y100.352 E.01972
M204 S1000
; printing object 599-23-Prometheus-ARM-P-5011.STL id:0 copy 0
;WIPE_START
G1 F8640
G1 X119.712 Y100.212 E-.04156
G1 X120.598 Y99.387 E-.27954
G1 X121.961 Y98.546 E-.3698
G1 X123.013 Y98.156 E-.2591
;WIPE_END
G1 E-.05 F2100
G1 Z.4 F720
G1 X121.063 Y104.612 F10800
G1 Z.2 F720
G1 E1 F2100
M204 S800
;TYPE:Perimeter
;WIDTH:0.419999
G1 F1200
G1 X121.067 Y104.514 E.00306
G1 X121.205 Y103.861 E.02094
G1 X121.452 Y103.236 E.02107
G1 X121.801 Y102.661 E.02107
G1 X122.242 Y102.154 E.02107
G1 X122.763 Y101.729 E.02107
G1 X123.348 Y101.398 E.02107
G1 X123.98 Y101.171 E.02107
G1 X124.642 Y101.053 E.02107
G1 X125.314 Y101.05 E.02107
G1 X125.977 Y101.16 E.02107
G1 X126.612 Y101.38 E.02107
G1 X127.201 Y101.705 E.02107
G1 X127.726 Y102.124 E.02107
G1 X128.173 Y102.626 E.02107
G1 X128.529 Y103.196 E.02107
G1 X128.783 Y103.819 E.02107
G1 X128.92 Y104.378 E.01806
G1 X128.96 Y105.146 E.02412
G1 X128.878 Y105.813 E.02107
G1 X128.685 Y106.457 E.02107
G1 X128.386 Y107.059 E.02107
G1 X127.989 Y107.602 E.02107
G1 X127.507 Y108.069 E.02107
G1 X126.952 Y108.449 E.02107
G1 X126.341 Y108.729 E.02107
G1 X125.691 Y108.902 E.02107
G1 X125.022 Y108.963 E.02108
G1 X124.352 Y108.909 E.02107
G1 X123.701 Y108.744 E.02107
G1 X123.087 Y108.47 E.02107
G1 X122.528 Y108.097 E.02107
G1 X122.04 Y107.635 E.02107
G1 X121.637 Y107.096 E.02107
G1 X121.331 Y106.498 E.02108
G1 X121.131 Y105.856 E.02107
G1 X121.041 Y105.194 E.02095
G1 X121.061 Y104.672 E.0164
M204 S1000
G1 X120.689 Y104.598 F10800
M204 S800
;TYPE:External perimeter
G1 F1200
G1 X120.696 Y104.45 E.00463
G1 X120.849 Y103.735 E.02294
G1 X121.122 Y103.052 E.02308
G1 X121.508 Y102.424 E.02308
G1 X121.993 Y101.871 E.02308
G1 X122.565 Y101.408 E.02308
G1 X123.207 Y101.048 E.02308
G1 X123.901 Y100.802 E.02308
G1 X124.626 Y100.677 E.02308
G1 X125.362 Y100.676 E.02308
G1 X126.088 Y100.799 E.02308
G1 X126.782 Y101.043 E.02308
G1 X127.425 Y101.401 E.02308
G1 X127.998 Y101.863 E.02308
G1 X128.485 Y102.415 E.02308
G1 X128.872 Y103.041 E.02308
G1 X129.148 Y103.724 E.02308
G1 X129.295 Y104.346 E.02006
G1 X129.336 Y105.178 E.02613
G1 X129.243 Y105.908 E.02308
G1 X129.029 Y106.613 E.02308
G1 X128.698 Y107.27 E.02308
G1 X128.261 Y107.863 E.02308
G1 X127.731 Y108.373 E.02308
G1 X127.122 Y108.786 E.02308
G1 X126.451 Y109.09 E.02308
G1 X125.739 Y109.276 E.02308
G1 X125.006 Y109.34 E.02308
G1 X124.272 Y109.278 E.02308
G1 X123.56 Y109.094 E.02308
G1 X122.889 Y108.791 E.02308
G1 X122.278 Y108.38 E.02308
G1 X121.746 Y107.871 E.02308
G1 X121.308 Y107.28 E.02308
G1 X120.976 Y106.624 E.02308
G1 X120.759 Y105.92 E.02308
G1 X120.664 Y105.194 E.02295
G1 X120.687 Y104.658 E.01683
M204 S1000
G1 X120.818 Y104.526 F10800
;WIPE_START
G1 F8640
G1 X120.696 Y104.45 E-.04796
G1 X120.849 Y103.735 E-.16896
G1 X121.122 Y103.052 E-.16995
G1 X121.508 Y102.424 E-.16995
G1 X121.993 Y101.871 E-.16995
G1 X122.565 Y101.408 E-.16995
G1 X122.766 Y101.295 E-.05327
;WIPE_END
G1 E-.05 F2100
G1 Z.4 F720
G1 X127.802 Y104.996 F10800
G1 Z.2 F720
G1 E1 F2100
M204 S800
;TYPE:Perimeter
G1 F1200
G1 X127.757 Y105.521 E.01655
G1 X127.629 Y105.98 E.01492
G1 X127.426 Y106.41 E.01492
G1 X127.152 Y106.8 E.01492
G1 X126.817 Y107.137 E.01492
G1 X126.43 Y107.414 E.01492
G1 X126.001 Y107.621 E.01492
G1 X125.544 Y107.752 E.01492
G1 X125.071 Y107.805 E.01492
G1 X124.596 Y107.776 E.01492
G1 X124.133 Y107.668 E.01492
G1 X123.694 Y107.483 E.01492
G1 X123.293 Y107.227 E.01492
G1 X122.942 Y106.906 E.01492
G1 X122.649 Y106.531 E.01492
G1 X122.424 Y106.112 E.01492
G1 X122.273 Y105.66 E.01492
G1 X122.202 Y105.194 E.01479
G1 X122.21 Y104.71 E.01518
G1 X122.297 Y104.247 E.01479
G1 X122.464 Y103.801 E.01492
G1 X122.703 Y103.389 E.01492
G1 X123.008 Y103.024 E.01492
G1 X123.371 Y102.716 E.01492
G1 X123.78 Y102.474 E.01492
G1 X124.224 Y102.304 E.01492
G1 X124.691 Y102.211 E.01492
G1 X125.167 Y102.199 E.01492
G1 X125.638 Y102.268 E.01492
G1 X126.09 Y102.415 E.01492
G1 X126.512 Y102.636 E.01492
G1 X126.889 Y102.926 E.01492
G1 X127.213 Y103.275 E.01492
G1 X127.472 Y103.674 E.01492
G1 X127.661 Y104.111 E.01492
G1 X127.773 Y104.573 E.01492
G1 X127.798 Y104.936 E.01139
M204 S1000
G1 X127.428 Y105.032 F10800
M204 S800
;TYPE:External perimeter
G1 F1200
G1 X127.392 Y105.426 E.01243
G1 X127.285 Y105.824 E.01292
G1 X127.113 Y106.199 E.01292
G1 X126.88 Y106.539 E.01292
G1 X126.593 Y106.834 E.01292
G1 X126.26 Y107.077 E.01292
G1 X125.891 Y107.26 E.01292
G1 X125.496 Y107.378 E.01292
G1 X125.087 Y107.428 E.01292
G1 X124.676 Y107.408 E.01292
G1 X124.273 Y107.318 E.01292
G1 X123.892 Y107.162 E.01292
G1 X123.543 Y106.944 E.01292
G1 X123.235 Y106.669 E.01292
G1 X122.978 Y106.347 E.01292
G1 X122.78 Y105.986 E.01292
G1 X122.645 Y105.597 E.01292
G1 X122.579 Y105.194 E.01279
G1 X122.581 Y104.774 E.01318
G1 X122.653 Y104.372 E.01279
G1 X122.793 Y103.985 E.01292
G1 X122.996 Y103.626 E.01292
G1 X123.257 Y103.307 E.01292
G1 X123.568 Y103.037 E.01292
G1 X123.921 Y102.824 E.01292
G1 X124.304 Y102.672 E.01292
G1 X124.707 Y102.588 E.01292
G1 X125.119 Y102.573 E.01292
G1 X125.527 Y102.628 E.01292
G1 X125.921 Y102.752 E.01292
G1 X126.287 Y102.94 E.01292
G1 X126.617 Y103.187 E.01292
G1 X126.9 Y103.486 E.01292
G1 X127.129 Y103.829 E.01292
G1 X127.296 Y104.206 E.01292
G1 X127.397 Y104.605 E.01292
G1 X127.426 Y104.972 E.01153
M204 S1000
G1 X127.77 Y105.233 F10800
;WIPE_START
G1 F8640
G1 X127.392 Y105.426 E-.10523
G1 X127.285 Y105.824 E-.09515
G1 X127.113 Y106.199 E-.09515
G1 X126.88 Y106.539 E-.09515
G1 X126.593 Y106.834 E-.09515
G1 X126.26 Y107.077 E-.09515
G1 X125.891 Y107.26 E-.09515
G1 X125.496 Y107.378 E-.09514
G1 X125.087 Y107.428 E-.09515
G1 X124.726 Y107.41 E-.08358
;WIPE_END
G1 E-.05 F2100
G1 Z.4 F720
G1 X128.412 Y103.213 F10800
G1 Z.2 F720
G1 E1 F2100
M204 S800
;TYPE:Solid infill
;WIDTH:0.43028
G1 F1200
G1 X127.41 Y102.211 E.04561
G1 X126.934 Y101.859 E.01909
G1 X126.375 Y101.577 E.02015
G1 X126.164 Y101.512 E.00713
G1 X128.498 Y103.846 E.1063
G1 X128.636 Y104.377 E.01765
G1 X128.65 Y104.547 E.00549
G1 X127.784 Y103.68 E.03945
G1 X127.698 Y103.493 E.00665
G1 X127.443 Y103.111 E.01478
G1 X127.089 Y102.726 E.01686
G1 X126.621 Y102.369 E.01896
G1 X126.321 Y102.218 E.0108
G1 X125.26 Y101.157 E.04833
M204 S1000
;WIPE_START
G1 F8640
G1 X126.321 Y102.218 E-.34647
G1 X126.621 Y102.369 E-.07745
G1 X127.089 Y102.726 E-.13594
G1 X127.443 Y103.111 E-.12086
G1 X127.698 Y103.493 E-.10596
G1 X127.784 Y103.68 E-.04766
G1 X128.138 Y104.035 E-.11566
;WIPE_END
G1 E-.05 F2100
G1 Z.4 F720
G1 X125.739 Y102.184 F10800
G1 Z.2 F720
G1 E1 F2100
M204 S800
G1 F1200
G1 X124.885 Y101.329 E.03892
G1 X124.531 Y101.341 E.0114
G1 X124.381 Y101.373 E.00493
G1 X124.927 Y101.919 E.02486
G1 X124.607 Y101.935 E.01031
G1 X124.432 Y101.972 E.00578
G1 X123.931 Y101.471 E.02282
G1 X123.539 Y101.626 E.01359
G1 X124.001 Y102.088 E.02105
G1 X123.612 Y102.247 E.01353
G1 X123.173 Y101.809 E.01998
G1 X122.834 Y102.017 E.01282
G1 X123.269 Y102.452 E.0198
G1 X123.163 Y102.515 E.00396
G1 X122.961 Y102.692 E.00865
G1 X122.539 Y102.27 E.01924
G1 X122.337 Y102.448 E.00866
G1 X122.262 Y102.541 E.00385
G1 X122.686 Y102.965 E.01931
G1 X122.441 Y103.268 E.01255
G1 X122.017 Y102.844 E.01931
G1 X121.944 Y102.934 E.00375
G1 X121.806 Y103.181 E.00909
G1 X122.249 Y103.623 E.02015
G1 X122.16 Y103.787 E.00602
G1 X122.084 Y104.006 E.00746
G1 X121.618 Y103.54 E.02124
G1 X121.475 Y103.945 E.01383
G1 X121.97 Y104.441 E.02258
G1 X121.93 Y104.669 E.00747
G1 X121.924 Y104.942 E.0088
G1 X121.375 Y104.393 E.02501
G1 X121.324 Y104.692 E.00977
G1 X121.324 Y104.89 E.00637
G1 X122.176 Y105.742 E.03884
M204 S1000
;WIPE_START
G1 F8640
G1 X121.324 Y104.89 E-.27846
G1 X121.324 Y104.692 E-.04565
G1 X121.375 Y104.393 E-.07002
G1 X121.924 Y104.942 E-.17931
G1 X121.93 Y104.669 E-.06308
G1 X121.97 Y104.441 E-.05355
G1 X121.475 Y103.945 E-.16189
G1 X121.616 Y103.544 E-.09804
;WIPE_END
G1 E-.05 F2100
G1 Z.4 F720
G1 X127.808 Y104.252 F10800
G1 Z.2 F720
G1 E1 F2100
M204 S800
G1 F1200
G1 X128.678 Y105.123 E.03965
G1 X128.636 Y105.623 E.01619
G1 X128.084 Y105.076 E.02504
G1 X128.033 Y105.573 E.01608
G1 X128.522 Y106.061 E.02227
G1 X128.478 Y106.229 E.00557
G1 X128.373 Y106.461 E.0082
G1 X127.92 Y106.007 E.02066
G1 X127.752 Y106.387 E.01338
G1 X128.197 Y106.833 E.02029
G1 X127.976 Y107.16 E.01271
G1 X127.544 Y106.728 E.01968
G1 X127.31 Y107.041 E.01261
G1 X127.731 Y107.462 E.01917
G1 X127.463 Y107.742 E.01248
G1 X127.036 Y107.315 E.01943
G1 X126.727 Y107.554 E.01258
G1 X127.153 Y107.979 E.01939
G1 X126.961 Y108.121 E.00769
G1 X126.82 Y108.194 E.00511
G1 X126.38 Y107.754 E.02002
G1 X126.211 Y107.841 E.0061
G1 X125.99 Y107.912 E.0075
G1 X126.458 Y108.38 E.02132
G1 X126.375 Y108.423 E.003
G1 X126.052 Y108.522 E.01089
G1 X125.562 Y108.032 E.0223
G1 X125.067 Y108.085 E.01604
G1 X125.609 Y108.627 E.02472
G1 X125.157 Y108.685 E.01471
G1 X125.118 Y108.684 E.00124
G1 X124.241 Y107.807 E.03995
M204 S1000
;WIPE_START
G1 F8640
G1 X125.118 Y108.684 E-.28636
G1 X125.157 Y108.685 E-.00891
G1 X125.609 Y108.627 E-.10543
G1 X125.067 Y108.085 E-.17719
G1 X125.562 Y108.032 E-.11502
G1 X126.052 Y108.522 E-.15986
G1 X126.375 Y108.423 E-.07806
G1 X126.449 Y108.385 E-.01917
;WIPE_END
G1 E-.05 F2100
G1 Z.4 F720
G1 X124.723 Y108.837 F10800
G1 Z.2 F720
G1 E1 F2100
M204 S800
G1 F1200
G1 X123.66 Y107.774 E.04842
G1 X123.552 Y107.728 E.00381
G1 X123.162 Y107.485 E.01478
G1 X122.816 Y107.183 E.01479
G1 X122.44 Y106.731 E.01894
G1 X122.215 Y106.329 E.01484
G1 X121.35 Y105.464 E.03939
G1 X121.43 Y105.929 E.01521
G1 X121.519 Y106.18 E.00857
G1 X123.829 Y108.491 E.10524
G1 X123.339 Y108.294 E.01701
G1 X122.807 Y107.966 E.02015
G1 X122.39 Y107.599 E.01789
G1 X121.614 Y106.823 E.03532
M204 S1000
; stop printing object 599-23-Prometheus-ARM-P-5011.STL id:0 copy 0
;LAYER_CHANGE
;Z:0.4
;HEIGHT:0.2
;BEFORE_LAYER_CHANGE
G92 E0.0
;0.4


;WIPE_START
G1 F8640
G1 X122.39 Y107.599 E-.25322
G1 X122.807 Y107.966 E-.12827
G1 X123.339 Y108.294 E-.14446
G1 X123.829 Y108.491 E-.12193
G1 X122.904 Y107.565 E-.30212
;WIPE_END
G1 E-.05 F2100
G1 Z.4 F720
;AFTER_LAYER_CHANGE
;0.4
M104 S240 ; set temperature
M140 S90 ; set bed temperature
G1 Z.6
G1 X119.92 Y110.962 F10800
G1 Z.4 F720
G1 E1 F2100
;TYPE:Skirt/Brim
;WIDTH:0.42
G1 F1253
G1 X119.133 Y110.27 E.03284
G1 X118.327 Y109.203 E.04194
G1 X117.929 Y108.492 E.02553
G1 X117.439 Y107.243 E.04207
G1 X117.169 Y105.937 E.04182
G1 X117.126 Y104.463 E.04623
G1 X117.438 Y102.759 E.05432
G1 X117.927 Y101.511 E.04201
G1 X118.617 Y100.368 E.04188
G1 X119.125 Y99.738 E.02537
G1 X120.099 Y98.82 E.04197
G1 X121.679 Y97.847 E.05818
G1 X122.94 Y97.387 E.04208
G1 X124.26 Y97.148 E.04207
G1 X125.598 Y97.136 E.04194
G1 X126.92 Y97.35 E.04201
G1 X128.179 Y97.783 E.04174
G1 X128.904 Y98.147 E.02545
G1 X130.008 Y98.907 E.04202
G1 X130.962 Y99.837 E.04174
G1 X132.006 Y101.378 E.05838
G1 X132.518 Y102.618 E.04207
G1 X132.813 Y103.923 E.04194
G1 X132.882 Y105.266 E.04214
G1 X132.724 Y106.594 E.04194
G1 X132.347 Y107.866 E.04161
G1 X132.015 Y108.603 E.02532
G1 X131.302 Y109.742 E.04215
G1 X130.013 Y111.088 E.05844
G1 X128.909 Y111.85 E.04208
G1 X127.693 Y112.413 E.04201
