; generated by PrusaSlicer 2.5.0+win64 on 2023-02-02 at 04:04:30 UTC


;
;
; 

; external perimeters extrusion width = 0.45mm
; perimeters extrusion width = 0.45mm
; infill extrusion width = 0.45mm
; solid infill extrusion width = 0.45mm
; top infill extrusion width = 0.40mm
; first layer extrusion width = 0.42mm

M73 P0 R66
M73 Q0 S66
M201 X1000 Y1000 Z200 E5000 ; sets maximum accelerations, mm/sec^2
M203 X200 Y200 Z12 E120 ; sets maximum feedrates, mm / sec
M204 P1250 R1250 T1250 ; sets acceleration (P, T) and retract acceleration (R), mm/sec^2
M205 X8.00 Y8.00 Z0.40 E4.50 ; sets the jerk limits, mm/sec
M205 S0 T0 ; sets the minimum extruding and travel feed rate, mm/sec
M107
;TYPE:Custom
M862.3 P "MK3S" ; printer model check
M862.1 P0.4 ; nozzle diameter check
M115 U3.11.0 ; tell printer latest fw version
G90 ; use absolute coordinates
M83 ; extruder relative mode
M104 S230 ; set extruder temp
M140 S85 ; set bed temp
M190 S85 ; wait for bed temp
M109 S230 ; wait for extruder temp
G28 W ; home all without mesh bed level
G80 ; mesh bed leveling

G1 Z0.2 F720
G1 Y-3 F1000 ; go outside print area
G92 E0
G1 X60 E9 F1000 ; intro line
G1 X100 E12.5 F1000 ; intro line

G92 E0
M221 S95

; Don't change E values below. Excessive value can damage the printer.

G21 ; set units to millimeters
G90 ; use absolute coordinates
M83 ; use relative distances for extrusion
M900 K0.08 ; Filament gcode LA 1.5
M900 K45 ; Filament gcode LA 1.0
M107
;LAYER_CHANGE
;Z:0.2
;HEIGHT:0.2
;BEFORE_LAYER_CHANGE
G92 E0.0
;0.2


G1 E-1 F2100
G1 Z.2 F720
;AFTER_LAYER_CHANGE
;0.2
G1 Z.4
G1 X117.636 Y99.225 F10800
G1 Z.2 F720
G1 E1 F2100
M204 S800
;TYPE:Skirt/Brim
;WIDTH:0.42
G1 F1200
G1 X118.381 Y98.384 E.03522
G1 X119.21 Y97.647 E.03477
G1 X120.357 Y96.874 E.04338
G1 X121.356 Y96.379 E.03497
G1 X123.206 Y95.815 E.06064
G1 X124.516 Y95.651 E.04138
G1 X125.483 Y95.651 E.03034
G1 X126.788 Y95.814 E.04121
G1 X128.644 Y96.379 E.06084
G1 X129.88 Y97.014 E.04358
G1 X131.414 Y98.184 E.06049
G1 X169.046 Y135.807 E1.66848
G1 X169.855 Y136.713 E.03808
M73 P0 R65
G1 X170.888 Y138.348 E.06064
G1 X171.318 Y139.365 E.03462
G1 X171.628 Y140.433 E.03487
G1 X171.833 Y141.809 E.04363
G1 X171.776 Y143.742 E.06064
G1 X171.49 Y145.102 E.04358
G1 X170.763 Y146.895 E.06064
G1 X170.021 Y148.07 E.04358
G1 X169.31 Y148.92 E.03477
G1 X168.507 Y149.676 E.03457
G1 X166.898 Y150.761 E.06084
G1 X165.626 Y151.321 E.04358
G1 X163.747 Y151.776 E.06064
G1 X162.495 Y151.862 E.03934
G1 X161.254 Y151.776 E.03899
G1 X160.378 Y151.618 E.02791
G1 X159.332 Y151.308 E.03422
G1 X158.102 Y150.761 E.04219
G1 X156.501 Y149.683 E.06054
G1 X118.165 Y111.396 E1.69879
G1 X117.482 Y110.574 E.03349
G1 X116.74 Y109.4 E.04355
G1 X116.275 Y108.386 E.03497
G1 X115.936 Y107.331 E.03477
G1 X115.651 Y105.42 E.06059
G1 X115.666 Y104.314 E.03467
G1 X115.871 Y102.941 E.04353
G1 X116.18 Y101.87 E.03497
G1 X116.612 Y100.848 E.03477
G1 X117.604 Y99.276 E.0583
M204 S1000
; printing object 599-23-Prometheus-ARM-P-9014.STL id:0 copy 3
;WIPE_START
G1 F8640
G1 X118.381 Y98.384 E-.27304
G1 X119.21 Y97.647 E-.25604
G1 X120.357 Y96.874 E-.31944
G1 X120.751 Y96.679 E-.10148
;WIPE_END
G1 E-.05 F2100
G1 Z.4 F720
G1 X168.286 Y144.733 F10800
G1 Z.2 F720
G1 E1 F2100
M204 S800
;TYPE:Perimeter
;WIDTH:0.398142
G1 F1200
G1 X168.286 Y143.39 E.03966
;WIDTH:0.429939
G1 X168.296 Y141.967 E.04582
;WIDTH:0.419498
G1 X168.283 Y141.609 E.0112
;WIDTH:0.393012
G1 X168.269 Y141.252 E.01041
;WIDTH:0.366526
G1 X168.269 Y140.193 E.02848
G1 X168.396 Y140.51 E.00918
G1 X168.591 Y141.228 E.02001
;WIDTH:0.393012
G1 X168.632 Y141.594 E.01074
;WIDTH:0.419498
G1 X168.673 Y141.961 E.01155
;WIDTH:0.429939
G1 X168.688 Y142.695 E.02363
G1 X168.639 Y143.417 E.02327
;WIDTH:0.398142
G1 X168.488 Y144.136 E.02172
G1 X168.305 Y144.676 E.01683
M204 S1000
;WIPE_START
G1 F8640
G1 X168.286 Y143.39 E-.29691
G1 X168.296 Y141.967 E-.32876
G1 X168.283 Y141.609 E-.0826
G1 X168.269 Y141.252 E-.0826
G1 X168.269 Y140.562 E-.15912
;WIPE_END
G1 E-.05 F2100
G1 Z.4 F720
G1 X167.316 Y138.593 F10800
G1 Z.2 F720
G1 E1 F2100
M204 S800
;WIDTH:0.405944
G1 F1200
G1 X166.063 Y137.871 E.04366
;WIDTH:0.430258
G1 X164.832 Y137.155 E.04585
;WIDTH:0.412366
G1 X164.515 Y136.989 E.01101
;WIDTH:0.382061
G1 X164.197 Y136.823 E.01011
;WIDTH:0.351755
G1 X163.377 Y136.348 E.02433
G1 X163.613 Y136.37 E.00608
G1 X164.328 Y136.544 E.01891
;WIDTH:0.382061
G1 X164.669 Y136.687 E.01042
;WIDTH:0.412366
G1 X165.009 Y136.831 E.01135
;WIDTH:0.430258
G1 X165.658 Y137.175 E.02366
G1 X166.264 Y137.569 E.02328
;WIDTH:0.405944
G1 X166.821 Y138.049 E.02219
G1 X167.276 Y138.549 E.02039
M204 S1000
;WIPE_START
G1 F8640
G1 X166.063 Y137.871 E-.32077
G1 X164.832 Y137.155 E-.32873
G1 X164.515 Y136.989 E-.08277
G1 X164.197 Y136.823 E-.08277
G1 X163.691 Y136.53 E-.13495
;WIPE_END
G1 E-.05 F2100
G1 Z.4 F720
G1 X157.684 Y138.593 F10800
G1 Z.2 F720
G1 E1 F2100
M204 S800
;WIDTH:0.405955
G1 F1200
G1 X158.184 Y138.044 E.02241
G1 X158.745 Y137.563 E.02231
;WIDTH:0.430273
G1 X159.362 Y137.164 E.02368
G1 X160.011 Y136.822 E.02363
;WIDTH:0.412382
G1 X160.35 Y136.68 E.01129
;WIDTH:0.382078
G1 X160.689 Y136.539 E.01037
;WIDTH:0.351774
G1 X161.64 Y136.338 E.02494
G1 X160.803 Y136.823 E.02483
;WIDTH:0.382078
G1 X160.485 Y136.989 E.01011
;WIDTH:0.412382
G1 X160.168 Y137.155 E.01101
;WIDTH:0.430273
G1 X158.937 Y137.871 E.04585
;WIDTH:0.405955
G1 X157.736 Y138.563 E.04185
M204 S1000
;WIPE_START
G1 F8640
G1 X158.184 Y138.044 E-.15826
G1 X158.745 Y137.563 E-.17062
G1 X159.362 Y137.164 E-.16973
G1 X160.011 Y136.822 E-.16937
G1 X160.35 Y136.68 E-.08487
G1 X160.689 Y136.539 E-.08487
G1 X161.165 Y136.439 E-.11227
;WIPE_END
G1 E-.05 F2100
G1 Z.4 F720
G1 X156.714 Y144.733 F10800
G1 Z.2 F720
G1 E1 F2100
M204 S800
;WIDTH:0.398145
G1 F1200
G1 X156.511 Y144.13 E.01878
G1 X156.36 Y143.406 E.02185
;WIDTH:0.42994
G1 X156.312 Y142.672 E.02367
G1 X156.329 Y141.939 E.02361
;WIDTH:0.419501
G1 X156.37 Y141.578 E.01135
;WIDTH:0.393014
G1 X156.41 Y141.218 E.01055
;WIDTH:0.366527
G1 X156.604 Y140.51 E.01976
G1 X156.731 Y140.193 E.00918
G1 X156.731 Y141.252 E.02848
;WIDTH:0.393014
G1 X156.717 Y141.609 E.01041
;WIDTH:0.419501
G1 X156.704 Y141.967 E.0112
;WIDTH:0.42994
G1 X156.714 Y143.39 E.04582
;WIDTH:0.398145
G1 X156.714 Y144.673 E.03788
M204 S1000
;WIPE_START
G1 F8640
G1 X156.511 Y144.13 E-.13377
G1 X156.36 Y143.406 E-.17083
G1 X156.312 Y142.672 E-.16985
G1 X156.329 Y141.939 E-.16937
G1 X156.37 Y141.578 E-.08371
G1 X156.41 Y141.218 E-.08371
G1 X156.569 Y140.638 E-.13875
;WIPE_END
G1 E-.05 F2100
G1 Z.4 F720
G1 X161.552 Y148.631 F10800
G1 Z.2 F720
G1 E1 F2100
M204 S800
;WIDTH:0.387458
G1 F1200
G1 X161.036 Y148.537 E.01504
G1 X160.327 Y148.32 E.02123
;WIDTH:0.426421
G1 X159.662 Y148.004 E.02348
G1 X159.03 Y147.631 E.02342
;WIDTH:0.423053
G1 X158.441 Y147.21 E.02288
;WIDTH:0.377327
G1 X157.916 Y146.7 E.02036
G1 X157.644 Y146.366 E.01197
G1 X158.634 Y146.939 E.03179
;WIDTH:0.423053
G1 X159.24 Y147.315 E.02256
;WIDTH:0.426421
G1 X160.483 Y148.013 E.04545
;WIDTH:0.387458
G1 X161.5 Y148.601 E.03366
M204 S1000
;WIPE_START
G1 F8640
G1 X161.036 Y148.537 E-.10824
G1 X160.327 Y148.32 E-.17109
G1 X159.662 Y148.004 E-.16998
G1 X159.03 Y147.631 E-.16961
G1 X158.441 Y147.21 E-.16711
G1 X157.931 Y146.716 E-.16396
;WIPE_END
G1 E-.05 F2100
G1 Z.4 F720
G1 X163.448 Y148.631 F10800
G1 Z.2 F720
G1 E1 F2100
M204 S800
;WIDTH:0.387459
G1 F1200
G1 X164.517 Y148.013 E.03537
;WIDTH:0.426425
G1 X165.759 Y147.316 E.04543
;WIDTH:0.42308
G1 X166.366 Y146.938 E.02259
;WIDTH:0.377326
G1 X167.356 Y146.366 E.03179
G1 X167.084 Y146.7 E.01197
G1 X166.551 Y147.216 E.02063
;WIDTH:0.42308
G1 X165.951 Y147.644 E.0233
;WIDTH:0.426425
G1 X165.318 Y148.015 E.0234
G1 X164.663 Y148.324 E.02308
;WIDTH:0.387459
G1 X163.959 Y148.539 E.02109
G1 X163.507 Y148.62 E.01316
M204 S1000
;WIPE_START
G1 F8640
G1 X164.517 Y148.013 E-.27212
G1 X165.759 Y147.316 E-.32896
G1 X166.366 Y146.938 E-.16499
G1 X167.056 Y146.54 E-.18393
;WIPE_END
G1 E-.05 F2100
G1 Z.4 F720
G1 X157.113 Y139.394 F10800
G1 Z.2 F720
G1 E1 F2100
M204 S800
;TYPE:External perimeter
;WIDTH:0.413169
G1 F1200
G1 X157.227 Y139.292 E.00471
;WIDTH:0.419999
G1 X162.256 Y136.38 E.1822
;WIDTH:0.416388
G1 X162.495 Y136.275 E.00812
;WIDTH:0.408954
G1 X162.592 Y136.296 E.00302
;WIDTH:0.419999
G1 X167.773 Y139.292 E.18766
;WIDTH:0.413167
G1 X167.9 Y139.422 E.00561
;WIDTH:0.419999
G1 X167.919 Y140.527 E.03465
G1 X167.916 Y145.521 E.15657
;WIDTH:0.41058
G1 X167.865 Y145.642 E.00401
;WIDTH:0.419999
G1 X166.813 Y146.269 E.0384
G1 X162.592 Y148.703 E.15279
;WIDTH:0.409393
G1 X162.489 Y148.724 E.0032
;WIDTH:0.419999
G1 X161.923 Y148.429 E.02002
G1 X157.55 Y145.901 E.15837
G1 X157.117 Y145.616 E.01625
;WIDTH:0.410581
G1 X157.084 Y145.521 E.00308
;WIDTH:0.419999
G1 X157.081 Y139.787 E.17975
G1 X157.108 Y139.454 E.01049
M204 S1000
G1 X157.042 Y139.259 F10800
;WIPE_START
G1 F8640
G1 X157.227 Y139.292 E-.04637
G1 X160.614 Y137.331 E-.90363
;WIPE_END
G1 E-.05 F2100
G1 Z.4 F720
G1 X161.706 Y149.025 F10800
G1 Z.2 F720
G1 E1 F2100
M204 S800
G1 F1200
G1 X160.93 Y148.883 E.02473
G1 X160.182 Y148.65 E.02457
G1 X159.469 Y148.332 E.02448
G1 X158.8 Y147.932 E.02444
G1 X158.186 Y147.458 E.02431
G1 X157.633 Y146.918 E.02425
G1 X157.149 Y146.318 E.02417
G1 X156.705 Y145.606 E.0263
G1 X156.401 Y144.951 E.02264
G1 X156.152 Y144.206 E.02464
G1 X155.995 Y143.439 E.02456
G1 X155.93 Y142.661 E.02447
G1 X155.957 Y141.883 E.0244
G1 X156.075 Y141.117 E.02432
G1 X156.281 Y140.372 E.02423
G1 X156.572 Y139.656 E.02421
G1 X156.943 Y138.978 E.02424
G1 X157.409 Y138.342 E.02474
G1 X157.942 Y137.764 E.02465
G1 X158.538 Y137.256 E.02454
G1 X159.187 Y136.824 E.02446
G1 X159.881 Y136.472 E.02438
G1 X160.609 Y136.205 E.0243
G1 X161.36 Y136.027 E.02422
G1 X162.128 Y135.934 E.02424
;WIDTH:0.416388
G1 X162.706 Y135.937 E.01796
;WIDTH:0.419999
G1 X163.693 Y136.037 E.03112
G1 X164.448 Y136.223 E.02436
G1 X165.18 Y136.499 E.02453
G1 X165.872 Y136.858 E.02445
G1 X166.514 Y137.296 E.02437
G1 X167.099 Y137.804 E.02429
G1 X167.618 Y138.375 E.02421
G1 X168.2 Y139.221 E.03219
G1 X168.442 Y139.686 E.01643
G1 X168.734 Y140.418 E.0247
G1 X168.938 Y141.176 E.02462
G1 X169.049 Y141.95 E.02451
G1 X169.068 Y142.729 E.02444
G1 X168.996 Y143.502 E.02436
G1 X168.833 Y144.259 E.02428
G1 X168.583 Y144.989 E.0242
G1 X168.151 Y145.859 E.03044
G1 X167.83 Y146.346 E.0183
G1 X167.332 Y146.955 E.02467
G1 X166.767 Y147.499 E.02458
G1 X166.144 Y147.97 E.0245
G1 X165.471 Y148.363 E.02442
G1 X164.759 Y148.672 E.02434
G1 X164.018 Y148.895 E.02426
G1 X163.258 Y149.029 E.02418
G1 X162.298 Y149.069 E.03014
G1 X161.766 Y149.03 E.01672
M204 S1000
G1 X161.55 Y148.657 F10800
; stop printing object 599-23-Prometheus-ARM-P-9014.STL id:0 copy 3
; printing object 599-23-Prometheus-ARM-P-9014.STL id:0 copy 2
;WIPE_START
G1 F8640
G1 X160.93 Y148.883 E-.19592
G1 X160.182 Y148.65 E-.18094
G1 X159.469 Y148.332 E-.18031
G1 X158.8 Y147.932 E-.17995
G1 X158.186 Y147.458 E-.17902
G1 X158.081 Y147.356 E-.03386
;WIPE_END
G1 E-.05 F2100
G1 Z.4 F720
G1 X155.786 Y132.233 F10800
G1 Z.2 F720
G1 E1 F2100
M204 S800
;TYPE:Perimeter
;WIDTH:0.398142
G1 F1200
G1 X155.786 Y130.89 E.03966
;WIDTH:0.429939
G1 X155.796 Y129.467 E.04582
;WIDTH:0.419498
G1 X155.783 Y129.109 E.0112
;WIDTH:0.393012
G1 X155.769 Y128.752 E.01041
;WIDTH:0.366526
G1 X155.769 Y127.693 E.02848
G1 X155.896 Y128.01 E.00918
G1 X156.091 Y128.728 E.02001
;WIDTH:0.393012
G1 X156.132 Y129.094 E.01074
;WIDTH:0.419498
G1 X156.173 Y129.461 E.01155
;WIDTH:0.429939
G1 X156.188 Y130.195 E.02363
G1 X156.139 Y130.917 E.02327
;WIDTH:0.398142
G1 X155.988 Y131.636 E.02172
G1 X155.805 Y132.176 E.01683
M204 S1000
;WIPE_START
G1 F8640
G1 X155.786 Y130.89 E-.29691
G1 X155.796 Y129.467 E-.32876
G1 X155.783 Y129.109 E-.0826
G1 X155.769 Y128.752 E-.0826
G1 X155.769 Y128.062 E-.15912
;WIPE_END
G1 E-.05 F2100
G1 Z.4 F720
G1 X154.816 Y126.093 F10800
G1 Z.2 F720
G1 E1 F2100
M204 S800
;WIDTH:0.405944
G1 F1200
G1 X153.563 Y125.371 E.04366
;WIDTH:0.430258
G1 X152.332 Y124.655 E.04585
;WIDTH:0.412366
G1 X152.015 Y124.489 E.01101
;WIDTH:0.382061
G1 X151.697 Y124.323 E.01011
;WIDTH:0.351755
G1 X150.877 Y123.848 E.02433
G1 X151.113 Y123.87 E.00608
G1 X151.828 Y124.044 E.01891
;WIDTH:0.382061
G1 X152.169 Y124.187 E.01042
;WIDTH:0.412366
G1 X152.509 Y124.331 E.01135
;WIDTH:0.430258
G1 X153.158 Y124.675 E.02366
G1 X153.764 Y125.069 E.02328
;WIDTH:0.405944
G1 X154.321 Y125.549 E.02219
G1 X154.776 Y126.049 E.02039
M204 S1000
;WIPE_START
G1 F8640
G1 X153.563 Y125.371 E-.32077
G1 X152.332 Y124.655 E-.32873
G1 X152.015 Y124.489 E-.08277
G1 X151.697 Y124.323 E-.08277
G1 X151.191 Y124.03 E-.13495
;WIPE_END
G1 E-.05 F2100
G1 Z.4 F720
G1 X145.184 Y126.093 F10800
G1 Z.2 F720
G1 E1 F2100
M204 S800
;WIDTH:0.405955
G1 F1200
G1 X145.684 Y125.544 E.02241
G1 X146.245 Y125.063 E.02231
;WIDTH:0.430273
G1 X146.862 Y124.664 E.02368
G1 X147.511 Y124.322 E.02363
;WIDTH:0.412382
G1 X147.85 Y124.18 E.01129
;WIDTH:0.382078
G1 X148.189 Y124.039 E.01037
;WIDTH:0.351774
G1 X149.14 Y123.838 E.02494
G1 X148.303 Y124.323 E.02483
;WIDTH:0.382078
G1 X147.985 Y124.489 E.01011
;WIDTH:0.412382
G1 X147.668 Y124.655 E.01101
;WIDTH:0.430273
G1 X146.437 Y125.371 E.04585
;WIDTH:0.405955
G1 X145.236 Y126.063 E.04185
M204 S1000
;WIPE_START
G1 F8640
G1 X145.684 Y125.544 E-.15826
G1 X146.245 Y125.063 E-.17062
G1 X146.862 Y124.664 E-.16973
G1 X147.511 Y124.322 E-.16937
G1 X147.85 Y124.18 E-.08487
G1 X148.189 Y124.039 E-.08487
G1 X148.665 Y123.939 E-.11227
;WIPE_END
G1 E-.05 F2100
G1 Z.4 F720
G1 X144.214 Y132.233 F10800
G1 Z.2 F720
G1 E1 F2100
M204 S800
;WIDTH:0.398145
G1 F1200
G1 X144.011 Y131.63 E.01878
G1 X143.86 Y130.906 E.02185
;WIDTH:0.42994
G1 X143.812 Y130.172 E.02367
G1 X143.829 Y129.439 E.02361
;WIDTH:0.419501
G1 X143.87 Y129.078 E.01135
;WIDTH:0.393014
G1 X143.91 Y128.718 E.01055
;WIDTH:0.366527
G1 X144.104 Y128.01 E.01976
G1 X144.231 Y127.693 E.00918
G1 X144.231 Y128.752 E.02848
;WIDTH:0.393014
G1 X144.217 Y129.109 E.01041
;WIDTH:0.419501
G1 X144.204 Y129.467 E.0112
;WIDTH:0.42994
G1 X144.214 Y130.89 E.04582
;WIDTH:0.398145
G1 X144.214 Y132.173 E.03788
M204 S1000
;WIPE_START
G1 F8640
G1 X144.011 Y131.63 E-.13377
G1 X143.86 Y130.906 E-.17083
G1 X143.812 Y130.172 E-.16985
G1 X143.829 Y129.439 E-.16937
G1 X143.87 Y129.078 E-.08371
G1 X143.91 Y128.718 E-.08371
G1 X144.069 Y128.138 E-.13875
;WIPE_END
G1 E-.05 F2100
G1 Z.4 F720
G1 X149.052 Y136.131 F10800
G1 Z.2 F720
G1 E1 F2100
M204 S800
;WIDTH:0.387458
G1 F1200
G1 X148.536 Y136.037 E.01504
G1 X147.827 Y135.82 E.02123
;WIDTH:0.426421
G1 X147.162 Y135.504 E.02348
G1 X146.53 Y135.131 E.02342
;WIDTH:0.423053
G1 X145.941 Y134.71 E.02288
;WIDTH:0.377327
G1 X145.416 Y134.2 E.02036
G1 X145.144 Y133.866 E.01197
G1 X146.134 Y134.439 E.03179
;WIDTH:0.423053
G1 X146.74 Y134.815 E.02256
;WIDTH:0.426421
G1 X147.983 Y135.513 E.04545
;WIDTH:0.387458
G1 X149 Y136.101 E.03366
M204 S1000
;WIPE_START
G1 F8640
G1 X148.536 Y136.037 E-.10824
G1 X147.827 Y135.82 E-.17109
G1 X147.162 Y135.504 E-.16998
G1 X146.53 Y135.131 E-.16961
G1 X145.941 Y134.71 E-.16711
G1 X145.431 Y134.216 E-.16396
;WIPE_END
G1 E-.05 F2100
G1 Z.4 F720
G1 X150.948 Y136.131 F10800
G1 Z.2 F720
G1 E1 F2100
M204 S800
;WIDTH:0.387459
G1 F1200
G1 X152.017 Y135.513 E.03537
;WIDTH:0.426425
G1 X153.259 Y134.816 E.04543
;WIDTH:0.42308
G1 X153.866 Y134.438 E.02259
;WIDTH:0.377326
G1 X154.856 Y133.866 E.03179
G1 X154.584 Y134.2 E.01197
G1 X154.051 Y134.716 E.02063
;WIDTH:0.42308
G1 X153.451 Y135.144 E.0233
;WIDTH:0.426425
G1 X152.818 Y135.515 E.0234
G1 X152.163 Y135.824 E.02308
;WIDTH:0.387459
G1 X151.459 Y136.039 E.02109
G1 X151.007 Y136.12 E.01316
M204 S1000
;WIPE_START
G1 F8640
G1 X152.017 Y135.513 E-.27212
G1 X153.259 Y134.816 E-.32896
G1 X153.866 Y134.438 E-.16499
G1 X154.556 Y134.04 E-.18393
;WIPE_END
G1 E-.05 F2100
G1 Z.4 F720
G1 X144.613 Y126.894 F10800
G1 Z.2 F720
G1 E1 F2100
M204 S800
;TYPE:External perimeter
;WIDTH:0.413169
G1 F1200
G1 X144.727 Y126.792 E.00471
;WIDTH:0.419999
G1 X149.756 Y123.88 E.1822
;WIDTH:0.416388
G1 X149.995 Y123.775 E.00812
;WIDTH:0.408954
G1 X150.092 Y123.796 E.00302
;WIDTH:0.419999
G1 X155.273 Y126.792 E.18766
;WIDTH:0.413167
